X:625
T:Reel 625
M:4/4
K:Gmaj
L:1/8
d2Bd d2Bd|efgd eAAc|BGBd d2dB|cdef gfga|d2Bd d2Bd|efgd eAAc|BGBd g2dg|ecAB BGG2|f2af g2ed|fdef gddd|fgaf g2gd|efef g2ag|fgab c'bag|fdef g2dg|egaf gfge|dBGB A2G2|
